X:1
T:Ave Maria a 3
T:Ave Maria a 3
T:Luigi Bottazzo
T:by IMSLP - Public Domain
T:by IMSLP - Public Domain
C:Luigi Bottazzo
Z:by IMSLP - Public Domain
%%score { ( 1 2 ) | 3 } 4 5 6
L:1/8
Q:1/4=72
M:4/4
K:D
V:1 treble nm="TTB\n"
V:2 treble 
V:3 treble 
V:4 treble nm="Voce"
V:5 treble nm="Voce"
V:6 treble nm="Voce"
V:1
"^Poco andante"!pp! (A4 d2 A2 | A4 A4) | (d2 B2) c2 e2 | d4 c2 z2 | c4 ^A2!f! F2 | f4 d2 B2 | %6
w: A\- ve Ma\-|ri\- a,|gra- * ti\- a|ple\- na:|Do\- mi\- nus|Do\- mi\- nus|
 (B2 A2 ^G4 | F2-) F z c2 c2 | (e4 d2) B2 | c2 (AB) c2 d2 | (e4 d2 B2 | !breath!c2) c2 (cc) (de) | %12
w: Te- * *|cum * be\- ne\-|dic- * ta|tu in * mu\- li\-|e- * ri\-|bus et be- * ne- *|
!f! f6 e2 | g6 f2 | d2 d2 (ed) (cB) | ^A4 c2- c !fermata!z |!f!"^Più mosso" ^d4 f2 d2 | %17
w: di- ctus||ven\- tris tu- * i *|Je\- sus _|San\- cta Ma\-|
 c4 !breath!B2 (B2- | B2 c2) (=de f2) | e2 e2 e2 f2 | (g4 f2 (ed) | !^!e4 !breath!d2 c) B | %22
w: ri\- a Ma-|* * ter _ _|De\- i, o\- ra|o- ra pro *|no\- bis pec\- ca\-|
 B3 A A4 | (AB) c d e2 g2 | (g4 f2) d2 | (e4 d2) z2 | (d6 e2 | f6-) f z |!p! (B6 c2) | %29
w: to\- ri\- bus|nunc * et in ho\- ra|mor- * tis|no- strae.|A- *|men _|A- *|
 !fermata!d8 |] %30
w: men.|
V:2
 F4 F2 E2 | F4 F4 | F4 G2 B2 | B4 ^A2 x2 | x8 | (F2 B2) F2 F2 | ^E2 F4 E2 | F2 F x A2 A2 | %8
w: ||||||||
 (B4 A2) A2 | A2 A2 A2 A2 | (B2 c2 A2) A2 | A2 A2 A2 AB | (c2 d2 B4) | d2 e2 c4 | B2 B2 B2 G2 | %15
w: |||* et be- ne- *|di- * ctus|fru- * ctus||
 F4 ^A2- A z | B4 B2 B2 | (=G2 F2) F2 z2 | G4 (A3 B) | c2 c2 z4 | B2 c2 (dc) (BA) | !^!B4 A2 G F | %22
w: |||Ma\- ter _|De\- i|||
 G3 G G4 | F2 G A B2 ed | (c4 d2) d2 | d2 c2 d2 x2 | z2 B6 | A6- A z | z2 G6 | !fermata!F8 |] %30
w: ||||A-|men _|A-|men.|
V:3
 (D4 B,2 C2 | D4 D4) | B,2 D2 E2 G2 | (F2 ^E2 F2) z2 | z8 | D4 B,2 D2 | (C2 D2 B,2 C2 | %7
w: |||||||
 F2-) F z F2 F2 | G4 F2 D2 | E2 CD E2 F2 | (G4 F2 D2 | !breath!E2) B,2 (DE) (FG) | (A2 B2 G4) | %13
w: ||||||
 B2 c2 A4 | (BA) (GF) G2 E2 | F4 F2- F !fermata!z | B,4 ^D2 F2 | E4 ^D2 z2 | E4 (F2 =D2) | %19
w: ||||||
 A2 A2 z4 | (E2 A2) (BA) (GF) | !^!G4 !breath!F2 E D | C3 C C4 | D2 E F (GF) E2 | (A4 B2) F2 | %25
w: ||||||
 (G2 A2 D2) z2 | z4 G4 | F6- F z | z4 !fermata!E4 | !fermata!D8 |] %30
w: |A\-|men _|A\-|men.|
V:4
!pp! (A4 d2 A2 | A4 A4) | (d2 B2) c2 e2 | d4 c2 z2 | c4 ^A2!f! F2 | f4 d2 B2 | (B2 A2 ^G4 | %7
w: A\- ve Ma\-|ri\- a,|gra- * ti\- a|ple\- na:|Do\- mi\- nus|Do\- mi\- nus|Te- * *|
 F2-) F z c2 c2 | (e4 d2) B2 | c2 (A B) c2 d2 | (e4 d2 B2 | !breath!c2) c2 (c c) (d e) |!f! f6 e2 | %13
w: cum * be\- ne\-|dic- * ta|tu in * mu\- li\-|e- * ri\-|bus et be- * ne- *|di- ctus|
 g6 f2 | d2 d2 (e d) (c B) | ^A4 c2- c !fermata!z |!f!"^Più mosso" ^d4 f2 d2 | c4 !breath!B2 (B2- | %18
w: |ven\- tris tu- * i *|Je\- sus _|San\- cta Ma\-|ri\- a Ma-|
 B2 c2) (=d e f2) | e2 e2 e2 f2 | (g4 f2 (e d) | !^!e4 !breath!d2 c) B | B3 A A4 | %23
w: * * ter _ _|De\- i, o\- ra|o- ra pro *|no\- bis pec\- ca\-|to\- ri\- bus|
 (A B) c d e2 g2 | (g4 f2) d2 | (e4 d2) z2 | (d6 e2 | f6-) f z |!p! (B6 c2) | !fermata!d8 |] %30
w: nunc * et in ho\- ra|mor- * tis|no- strae.|A- *|men _|A- *|men.|
V:5
 F4 F2 E2 | F4 F4 | F4 G2 B2 | B4 ^A2 z2 | z8 | (F2 B2) F2 F2 | ^E2 F4 E2 | F2 F z A2 A2 | %8
w: ||||||||
 (B4 A2) A2 | A2 A2 A2 A2 | (B2 c2 A2) A2 | A2 A2 A2 A B | (c2 d2 B4) | d2 e2 c4 | B2 B2 B2 G2 | %15
w: |||* et be- ne- *|di- * ctus|fru- * ctus||
 F4 ^A2- A z | B4 B2 B2 | (=G2 F2) F2 z2 | G4 (A3 B) | c2 c2 z4 | B2 c2 (d c) (B A) | %21
w: |||Ma\- ter _|De\- i||
 !^!B4 A2 G F | G3 G G4 | F2 G A B2 e d | (c4 d2) d2 | d2 c2 d2 z2 | z2 B6 | A6- A z | z2 G6 | %29
w: |||||A-|men _|A-|
 F8 |] %30
w: men.|
V:6
 (D4 B,2 C2 | D4 D4) | B,2 D2 E2 G2 | (F2 ^E2 F2) z2 | z8 | D4 B,2 D2 | (C2 D2 B,2 C2 | %7
w: |||||||
 F2-) F z F2 F2 | G4 F2 D2 | E2 C D E2 F2 | (G4 F2 D2 | !breath!E2) B,2 (D E) (F G) | (A2 B2 G4) | %13
w: ||||||
 B2 c2 A4 | (B A) (G F) G2 E2 | F4 F2- F !fermata!z | B,4 ^D2 F2 | E4 ^D2 z2 | E4 (F2 =D2) | %19
w: ||||||
 A2 A2 z4 | (E2 A2) (B A) (G F) | !^!G4 !breath!F2 E D | C3 C C4 | D2 E F (G F) E2 | (A4 B2) F2 | %25
w: ||||||
 (G2 A2 D2) z2 | z4 G4 | F6- F z | z4 !fermata!E4 | !fermata!D8 |] %30
w: |A\-|men _|A\-|men.|

